images/5461340.svg

<?xml version="1.0" encoding="UTF-8"?>
<svg xmlns="http://www.w3.org/2000/svg" xmlns:xlink="http://www.w3.org/1999/xlink" width="300pt" height="300pt" viewBox="0 0 300 300" version="1.1">
<defs>
<g>
<symbol overflow="visible" id="glyph0-0">
<path style="stroke:none;" d="M 0.453125 1.59375 L 0.453125 -6.34375 L 4.953125 -6.34375 L 4.953125 1.59375 Z M 0.953125 1.09375 L 4.453125 1.09375 L 4.453125 -5.84375 L 0.953125 -5.84375 Z M 0.953125 1.09375 "/>
</symbol>
<symbol overflow="visible" id="glyph0-1">
<path style="stroke:none;" d="M 0.890625 -6.5625 L 2.078125 -6.5625 L 4.984375 -1.078125 L 4.984375 -6.5625 L 5.84375 -6.5625 L 5.84375 0 L 4.65625 0 L 1.75 -5.484375 L 1.75 0 L 0.890625 0 Z M 0.890625 -6.5625 "/>
</symbol>
<symbol overflow="visible" id="glyph0-2">
<path style="stroke:none;" d="M 0.890625 -6.5625 L 1.765625 -6.5625 L 1.765625 -3.875 L 5 -3.875 L 5 -6.5625 L 5.890625 -6.5625 L 5.890625 0 L 5 0 L 5 -3.125 L 1.765625 -3.125 L 1.765625 0 L 0.890625 0 Z M 0.890625 -6.5625 "/>
</symbol>
<symbol overflow="visible" id="glyph0-3">
<path style="stroke:none;" d="M 3.546875 -5.953125 C 2.898438 -5.953125 2.382812 -5.710938 2 -5.234375 C 1.625 -4.753906 1.4375 -4.101562 1.4375 -3.28125 C 1.4375 -2.445312 1.625 -1.789062 2 -1.3125 C 2.382812 -0.832031 2.898438 -0.59375 3.546875 -0.59375 C 4.191406 -0.59375 4.703125 -0.832031 5.078125 -1.3125 C 5.453125 -1.789062 5.640625 -2.445312 5.640625 -3.28125 C 5.640625 -4.101562 5.453125 -4.753906 5.078125 -5.234375 C 4.703125 -5.710938 4.191406 -5.953125 3.546875 -5.953125 Z M 3.546875 -6.6875 C 4.460938 -6.6875 5.195312 -6.375 5.75 -5.75 C 6.300781 -5.132812 6.578125 -4.3125 6.578125 -3.28125 C 6.578125 -2.238281 6.300781 -1.410156 5.75 -0.796875 C 5.195312 -0.179688 4.460938 0.125 3.546875 0.125 C 2.617188 0.125 1.878906 -0.179688 1.328125 -0.796875 C 0.773438 -1.410156 0.5 -2.238281 0.5 -3.28125 C 0.5 -4.3125 0.773438 -5.132812 1.328125 -5.75 C 1.878906 -6.375 2.617188 -6.6875 3.546875 -6.6875 Z M 3.546875 -6.6875 "/>
</symbol>
</g>
</defs>
<g id="surface35581">
<rect x="0" y="0" width="300" height="300" style="fill:rgb(100%,100%,100%);fill-opacity:1;stroke:none;"/>
<path style="fill:none;stroke-width:1.2;stroke-linecap:butt;stroke-linejoin:miter;stroke:rgb(0%,0%,0%);stroke-opacity:1;stroke-miterlimit:10;" d="M 262.46875 90.351562 L 253.320312 94.945312 "/>
<path style="fill:none;stroke-width:1.2;stroke-linecap:butt;stroke-linejoin:miter;stroke:rgb(0%,0%,100%);stroke-opacity:1;stroke-miterlimit:10;" d="M 253.320312 94.945312 L 244.171875 99.539062 "/>
<path style="fill:none;stroke-width:1.2;stroke-linecap:butt;stroke-linejoin:miter;stroke:rgb(0%,0%,100%);stroke-opacity:1;stroke-miterlimit:10;" d="M 244.171875 99.539062 L 243.578125 109.761719 "/>
<path style="fill:none;stroke-width:1.2;stroke-linecap:butt;stroke-linejoin:miter;stroke:rgb(0%,0%,0%);stroke-opacity:1;stroke-miterlimit:10;" d="M 243.578125 109.761719 L 242.984375 119.980469 "/>
<path style=" stroke:none;fill-rule:nonzero;fill:rgb(100%,100%,100%);fill-opacity:1;" d="M 237.171875 94.039062 L 251.171875 94.039062 L 251.171875 105.039062 L 237.171875 105.039062 Z M 237.171875 94.039062 "/>
<g style="fill:rgb(0%,0%,100%);fill-opacity:1;">
  <use xlink:href="#glyph0-1" x="237.171875" y="102.702148"/>
  <use xlink:href="#glyph0-2" x="244.149414" y="102.702148"/>
</g>
<path style="fill:none;stroke-width:1.2;stroke-linecap:butt;stroke-linejoin:miter;stroke:rgb(0%,0%,0%);stroke-opacity:1;stroke-miterlimit:10;" d="M 241.660156 121.992188 L 250.210938 127.617188 "/>
<path style="fill:none;stroke-width:1.2;stroke-linecap:butt;stroke-linejoin:miter;stroke:rgb(100%,0%,0%);stroke-opacity:1;stroke-miterlimit:10;" d="M 250.210938 127.617188 L 258.761719 133.242188 "/>
<path style="fill:none;stroke-width:1.2;stroke-linecap:butt;stroke-linejoin:miter;stroke:rgb(0%,0%,0%);stroke-opacity:1;stroke-miterlimit:10;" d="M 244.304688 117.964844 L 252.859375 123.589844 "/>
<path style="fill:none;stroke-width:1.2;stroke-linecap:butt;stroke-linejoin:miter;stroke:rgb(100%,0%,0%);stroke-opacity:1;stroke-miterlimit:10;" d="M 252.859375 123.589844 L 261.410156 129.214844 "/>
<path style=" stroke:none;fill-rule:nonzero;fill:rgb(0%,0%,0%);fill-opacity:1;" d="M 224.6875 129.167969 L 244.605469 123.207031 L 241.363281 116.75 Z M 224.6875 129.167969 "/>
<path style=" stroke:none;fill-rule:nonzero;fill:rgb(100%,100%,100%);fill-opacity:1;" d="M 256.085938 125.730469 L 264.085938 125.730469 L 264.085938 136.730469 L 256.085938 136.730469 Z M 256.085938 125.730469 "/>
<g style="fill:rgb(100%,0%,0%);fill-opacity:1;">
  <use xlink:href="#glyph0-3" x="256.085938" y="134.393555"/>
</g>
<path style="fill:none;stroke-width:1.2;stroke-linecap:butt;stroke-linejoin:miter;stroke:rgb(0%,0%,0%);stroke-opacity:1;stroke-miterlimit:10;" d="M 224.6875 129.167969 L 204.25 127.976562 "/>
<path style="fill:none;stroke-width:1.2;stroke-linecap:butt;stroke-linejoin:miter;stroke:rgb(0%,0%,0%);stroke-opacity:1;stroke-miterlimit:10;" d="M 213.4375 146.269531 L 224.6875 129.167969 "/>
<path style="fill:none;stroke-width:1;stroke-linecap:butt;stroke-linejoin:miter;stroke:rgb(0%,0%,0%);stroke-opacity:1;stroke-miterlimit:10;" d="M 213.4375 146.269531 L 213.4375 146.269531 M 212.578125 143.394531 L 211.644531 143.863281 M 211.71875 140.523438 L 209.855469 141.457031 M 210.859375 137.648438 L 208.0625 139.050781 M 209.996094 134.773438 L 206.269531 136.644531 M 209.136719 131.898438 L 204.480469 134.238281 M 208.277344 129.027344 L 202.6875 131.832031 M 207.476562 126.355469 L 201.019531 129.597656 "/>
<path style="fill:none;stroke-width:1.2;stroke-linecap:butt;stroke-linejoin:miter;stroke:rgb(0%,0%,0%);stroke-opacity:1;stroke-miterlimit:10;" d="M 213.4375 146.269531 L 212.246094 166.707031 "/>
<path style="fill:none;stroke-width:1;stroke-linecap:butt;stroke-linejoin:miter;stroke:rgb(0%,0%,0%);stroke-opacity:1;stroke-miterlimit:10;" d="M 212.246094 166.707031 L 212.246094 166.707031 M 214.429688 168.765625 L 215 167.894531 M 216.609375 170.828125 L 217.757812 169.085938 M 218.792969 172.886719 L 220.511719 170.273438 M 220.972656 174.945312 L 223.265625 171.460938 M 223.15625 177.003906 L 226.019531 172.648438 M 225.335938 179.0625 L 228.773438 173.835938 M 227.367188 180.976562 L 231.335938 174.941406 "/>
<path style="fill:none;stroke-width:1.2;stroke-linecap:butt;stroke-linejoin:miter;stroke:rgb(0%,0%,0%);stroke-opacity:1;stroke-miterlimit:10;" d="M 212.246094 166.707031 L 203.097656 171.300781 "/>
<path style="fill:none;stroke-width:1.2;stroke-linecap:butt;stroke-linejoin:miter;stroke:rgb(0%,0%,100%);stroke-opacity:1;stroke-miterlimit:10;" d="M 203.097656 171.300781 L 193.953125 175.894531 "/>
<path style="fill:none;stroke-width:1.2;stroke-linecap:butt;stroke-linejoin:miter;stroke:rgb(0%,0%,0%);stroke-opacity:1;stroke-miterlimit:10;" d="M 229.351562 177.957031 L 228.160156 198.394531 "/>
<path style="fill:none;stroke-width:1.2;stroke-linecap:butt;stroke-linejoin:miter;stroke:rgb(0%,0%,0%);stroke-opacity:1;stroke-miterlimit:10;" d="M 234.039062 180.28125 L 233.085938 196.632812 "/>
<path style="fill:none;stroke-width:1.2;stroke-linecap:butt;stroke-linejoin:miter;stroke:rgb(0%,0%,0%);stroke-opacity:1;stroke-miterlimit:10;" d="M 247.644531 168.769531 L 229.351562 177.957031 "/>
<path style="fill:none;stroke-width:1.2;stroke-linecap:butt;stroke-linejoin:miter;stroke:rgb(0%,0%,0%);stroke-opacity:1;stroke-miterlimit:10;" d="M 228.160156 198.394531 L 245.265625 209.648438 "/>
<path style="fill:none;stroke-width:1.2;stroke-linecap:butt;stroke-linejoin:miter;stroke:rgb(0%,0%,0%);stroke-opacity:1;stroke-miterlimit:10;" d="M 245.265625 209.648438 L 263.558594 200.460938 "/>
<path style="fill:none;stroke-width:1.2;stroke-linecap:butt;stroke-linejoin:miter;stroke:rgb(0%,0%,0%);stroke-opacity:1;stroke-miterlimit:10;" d="M 244.933594 204.421875 L 259.566406 197.074219 "/>
<path style="fill:none;stroke-width:1.2;stroke-linecap:butt;stroke-linejoin:miter;stroke:rgb(0%,0%,0%);stroke-opacity:1;stroke-miterlimit:10;" d="M 263.558594 200.460938 L 264.75 180.019531 "/>
<path style="fill:none;stroke-width:1.2;stroke-linecap:butt;stroke-linejoin:miter;stroke:rgb(0%,0%,0%);stroke-opacity:1;stroke-miterlimit:10;" d="M 264.75 180.019531 L 247.644531 168.769531 "/>
<path style="fill:none;stroke-width:1.2;stroke-linecap:butt;stroke-linejoin:miter;stroke:rgb(0%,0%,0%);stroke-opacity:1;stroke-miterlimit:10;" d="M 260.390625 182.921875 L 246.710938 173.921875 "/>
<path style="fill:none;stroke-width:1.2;stroke-linecap:butt;stroke-linejoin:miter;stroke:rgb(0%,0%,100%);stroke-opacity:1;stroke-miterlimit:10;" d="M 193.953125 175.894531 L 185.398438 170.269531 "/>
<path style="fill:none;stroke-width:1.2;stroke-linecap:butt;stroke-linejoin:miter;stroke:rgb(0%,0%,0%);stroke-opacity:1;stroke-miterlimit:10;" d="M 185.398438 170.269531 L 176.847656 164.644531 "/>
<path style=" stroke:none;fill-rule:nonzero;fill:rgb(100%,100%,100%);fill-opacity:1;" d="M 186.953125 170.394531 L 200.953125 170.394531 L 200.953125 181.394531 L 186.953125 181.394531 Z M 186.953125 170.394531 "/>
<g style="fill:rgb(0%,0%,100%);fill-opacity:1;">
  <use xlink:href="#glyph0-1" x="186.953125" y="179.057617"/>
  <use xlink:href="#glyph0-2" x="193.930664" y="179.057617"/>
</g>
<path style="fill:none;stroke-width:1.2;stroke-linecap:butt;stroke-linejoin:miter;stroke:rgb(0%,0%,0%);stroke-opacity:1;stroke-miterlimit:10;" d="M 179.25 164.785156 L 179.847656 154.566406 "/>
<path style="fill:none;stroke-width:1.2;stroke-linecap:butt;stroke-linejoin:miter;stroke:rgb(100%,0%,0%);stroke-opacity:1;stroke-miterlimit:10;" d="M 179.847656 154.566406 L 180.441406 144.347656 "/>
<path style="fill:none;stroke-width:1.2;stroke-linecap:butt;stroke-linejoin:miter;stroke:rgb(0%,0%,0%);stroke-opacity:1;stroke-miterlimit:10;" d="M 174.441406 164.503906 L 175.039062 154.285156 "/>
<path style="fill:none;stroke-width:1.2;stroke-linecap:butt;stroke-linejoin:miter;stroke:rgb(100%,0%,0%);stroke-opacity:1;stroke-miterlimit:10;" d="M 175.039062 154.285156 L 175.632812 144.066406 "/>
<path style="fill:none;stroke-width:1.2;stroke-linecap:butt;stroke-linejoin:miter;stroke:rgb(0%,0%,0%);stroke-opacity:1;stroke-miterlimit:10;" d="M 176.847656 164.644531 L 158.550781 173.832031 "/>
<path style=" stroke:none;fill-rule:nonzero;fill:rgb(100%,100%,100%);fill-opacity:1;" d="M 174.039062 138.707031 L 182.039062 138.707031 L 182.039062 149.707031 L 174.039062 149.707031 Z M 174.039062 138.707031 "/>
<g style="fill:rgb(100%,0%,0%);fill-opacity:1;">
  <use xlink:href="#glyph0-3" x="174.039062" y="147.370117"/>
</g>
<path style="fill:none;stroke-width:1.2;stroke-linecap:butt;stroke-linejoin:miter;stroke:rgb(0%,0%,0%);stroke-opacity:1;stroke-miterlimit:10;" d="M 158.550781 173.832031 L 150 168.207031 "/>
<path style="fill:none;stroke-width:1.2;stroke-linecap:butt;stroke-linejoin:miter;stroke:rgb(0%,0%,100%);stroke-opacity:1;stroke-miterlimit:10;" d="M 150 168.207031 L 141.449219 162.582031 "/>
<path style="fill:none;stroke-width:1.2;stroke-linecap:butt;stroke-linejoin:miter;stroke:rgb(0%,0%,100%);stroke-opacity:1;stroke-miterlimit:10;" d="M 141.449219 162.582031 L 132.300781 167.175781 "/>
<path style="fill:none;stroke-width:1.2;stroke-linecap:butt;stroke-linejoin:miter;stroke:rgb(0%,0%,0%);stroke-opacity:1;stroke-miterlimit:10;" d="M 132.300781 167.175781 L 123.152344 171.769531 "/>
<path style=" stroke:none;fill-rule:nonzero;fill:rgb(100%,100%,100%);fill-opacity:1;" d="M 134.449219 157.082031 L 148.449219 157.082031 L 148.449219 168.082031 L 134.449219 168.082031 Z M 134.449219 157.082031 "/>
<g style="fill:rgb(0%,0%,100%);fill-opacity:1;">
  <use xlink:href="#glyph0-1" x="134.449219" y="165.745117"/>
  <use xlink:href="#glyph0-2" x="141.426758" y="165.745117"/>
</g>
<path style="fill:none;stroke-width:1.2;stroke-linecap:butt;stroke-linejoin:miter;stroke:rgb(0%,0%,0%);stroke-opacity:1;stroke-miterlimit:10;" d="M 120.75 171.628906 L 120.152344 181.847656 "/>
<path style="fill:none;stroke-width:1.2;stroke-linecap:butt;stroke-linejoin:miter;stroke:rgb(100%,0%,0%);stroke-opacity:1;stroke-miterlimit:10;" d="M 120.152344 181.847656 L 119.558594 192.066406 "/>
<path style="fill:none;stroke-width:1.2;stroke-linecap:butt;stroke-linejoin:miter;stroke:rgb(0%,0%,0%);stroke-opacity:1;stroke-miterlimit:10;" d="M 125.558594 171.910156 L 124.960938 182.128906 "/>
<path style="fill:none;stroke-width:1.2;stroke-linecap:butt;stroke-linejoin:miter;stroke:rgb(100%,0%,0%);stroke-opacity:1;stroke-miterlimit:10;" d="M 124.960938 182.128906 L 124.367188 192.347656 "/>
<path style="fill:none;stroke-width:1.2;stroke-linecap:butt;stroke-linejoin:miter;stroke:rgb(0%,0%,0%);stroke-opacity:1;stroke-miterlimit:10;" d="M 123.152344 171.769531 L 114.601562 166.144531 "/>
<path style="fill:none;stroke-width:1.2;stroke-linecap:butt;stroke-linejoin:miter;stroke:rgb(100%,0%,0%);stroke-opacity:1;stroke-miterlimit:10;" d="M 114.601562 166.144531 L 106.046875 160.519531 "/>
<path style=" stroke:none;fill-rule:nonzero;fill:rgb(100%,100%,100%);fill-opacity:1;" d="M 117.960938 186.707031 L 125.960938 186.707031 L 125.960938 197.707031 L 117.960938 197.707031 Z M 117.960938 186.707031 "/>
<g style="fill:rgb(100%,0%,0%);fill-opacity:1;">
  <use xlink:href="#glyph0-3" x="117.960938" y="195.370117"/>
</g>
<path style="fill:none;stroke-width:1.2;stroke-linecap:butt;stroke-linejoin:miter;stroke:rgb(100%,0%,0%);stroke-opacity:1;stroke-miterlimit:10;" d="M 106.046875 160.519531 L 96.902344 165.113281 "/>
<path style="fill:none;stroke-width:1.2;stroke-linecap:butt;stroke-linejoin:miter;stroke:rgb(0%,0%,0%);stroke-opacity:1;stroke-miterlimit:10;" d="M 96.902344 165.113281 L 87.753906 169.707031 "/>
<path style=" stroke:none;fill-rule:nonzero;fill:rgb(100%,100%,100%);fill-opacity:1;" d="M 102.046875 155.019531 L 110.046875 155.019531 L 110.046875 166.019531 L 102.046875 166.019531 Z M 102.046875 155.019531 "/>
<g style="fill:rgb(100%,0%,0%);fill-opacity:1;">
  <use xlink:href="#glyph0-3" x="102.046875" y="163.682617"/>
</g>
<path style="fill:none;stroke-width:1.2;stroke-linecap:butt;stroke-linejoin:miter;stroke:rgb(0%,0%,0%);stroke-opacity:1;stroke-miterlimit:10;" d="M 87.753906 169.707031 L 70.648438 158.457031 "/>
<path style="fill:none;stroke-width:1.2;stroke-linecap:butt;stroke-linejoin:miter;stroke:rgb(0%,0%,0%);stroke-opacity:1;stroke-miterlimit:10;" d="M 70.648438 158.457031 L 71.839844 138.019531 "/>
<path style="fill:none;stroke-width:1.2;stroke-linecap:butt;stroke-linejoin:miter;stroke:rgb(0%,0%,0%);stroke-opacity:1;stroke-miterlimit:10;" d="M 65.960938 156.132812 L 66.914062 139.78125 "/>
<path style="fill:none;stroke-width:1.2;stroke-linecap:butt;stroke-linejoin:miter;stroke:rgb(0%,0%,0%);stroke-opacity:1;stroke-miterlimit:10;" d="M 52.355469 167.644531 L 70.648438 158.457031 "/>
<path style="fill:none;stroke-width:1.2;stroke-linecap:butt;stroke-linejoin:miter;stroke:rgb(0%,0%,0%);stroke-opacity:1;stroke-miterlimit:10;" d="M 71.839844 138.019531 L 54.734375 126.769531 "/>
<path style="fill:none;stroke-width:1.2;stroke-linecap:butt;stroke-linejoin:miter;stroke:rgb(0%,0%,0%);stroke-opacity:1;stroke-miterlimit:10;" d="M 54.734375 126.769531 L 36.441406 135.957031 "/>
<path style="fill:none;stroke-width:1.2;stroke-linecap:butt;stroke-linejoin:miter;stroke:rgb(0%,0%,0%);stroke-opacity:1;stroke-miterlimit:10;" d="M 55.066406 131.992188 L 40.433594 139.34375 "/>
<path style="fill:none;stroke-width:1.2;stroke-linecap:butt;stroke-linejoin:miter;stroke:rgb(0%,0%,0%);stroke-opacity:1;stroke-miterlimit:10;" d="M 36.441406 135.957031 L 35.25 156.394531 "/>
<path style="fill:none;stroke-width:1.2;stroke-linecap:butt;stroke-linejoin:miter;stroke:rgb(0%,0%,0%);stroke-opacity:1;stroke-miterlimit:10;" d="M 35.25 156.394531 L 52.355469 167.644531 "/>
<path style="fill:none;stroke-width:1.2;stroke-linecap:butt;stroke-linejoin:miter;stroke:rgb(0%,0%,0%);stroke-opacity:1;stroke-miterlimit:10;" d="M 39.609375 153.496094 L 53.289062 162.496094 "/>
</g>
</svg>

<svg xmlns="http://www.w3.org/2000/svg" xmlns:xlink="http://www.w3.org/1999/xlink" width="300pt" height="300pt" viewBox="0 0 300 300"><defs><symbol overflow="visible"><path d="M.453 1.594v-7.938h4.5v7.938zm.5-.5h3.5v-6.938h-3.5zm0 0"/></symbol><symbol overflow="visible" id="a"><path d="M.89-6.563H2.08l2.906 5.485v-5.484h.86V0H4.656L1.75-5.484V0H.89zm0 0"/></symbol><symbol overflow="visible" id="b"><path d="M.89-6.563h.876v2.688H5v-2.688h.89V0H5v-3.125H1.766V0H.89zm0 0"/></symbol><symbol overflow="visible" id="c"><path d="M3.547-5.953c-.65 0-1.164.242-1.547.72-.375.48-.563 1.13-.563 1.952 0 .835.188 1.49.563 1.967.383.48.898.72 1.547.72.644 0 1.156-.24 1.53-.72.376-.476.564-1.132.564-1.968 0-.822-.187-1.474-.562-1.954-.375-.477-.887-.72-1.53-.72zm0-.734c.914 0 1.648.312 2.203.937.55.617.828 1.438.828 2.47 0 1.042-.277 1.87-.828 2.483-.555.617-1.29.922-2.203.922-.93 0-1.668-.305-2.22-.922C.774-1.41.5-2.237.5-3.28c0-1.033.273-1.853.828-2.47.55-.625 1.29-.938 2.22-.938zm0 0"/></symbol></defs><g><path fill="#fff" d="M0 0h300v300H0z"/><path d="M262.47 90.352l-9.15 4.593" stroke-width="1.2" stroke="#000" stroke-miterlimit="10" fill="none"/><path d="M253.32 94.945l-9.148 4.594M244.172 99.54l-.594 10.222" stroke-width="1.2" stroke="#00f" stroke-miterlimit="10" fill="none"/><path d="M243.578 109.762l-.594 10.218" stroke-width="1.2" stroke="#000" stroke-miterlimit="10" fill="none"/><path d="M237.172 94.04h14v11h-14zm0 0" fill="#fff"/><g fill="#00f"><use xlink:href="#a" x="237.172" y="102.702"/><use xlink:href="#b" x="244.149" y="102.702"/></g><path d="M241.66 121.992l8.55 5.625" stroke-width="1.2" stroke="#000" stroke-miterlimit="10" fill="none"/><path d="M250.21 127.617l8.552 5.625" stroke-width="1.2" stroke="#f00" stroke-miterlimit="10" fill="none"/><path d="M244.305 117.965l8.554 5.625" stroke-width="1.2" stroke="#000" stroke-miterlimit="10" fill="none"/><path d="M252.86 123.59l8.55 5.625" stroke-width="1.2" stroke="#f00" stroke-miterlimit="10" fill="none"/><path d="M224.688 129.168l19.917-5.96-3.242-6.458zm0 0"/><path d="M256.086 125.73h8v11h-8zm0 0" fill="#fff"/><use xlink:href="#c" x="256.086" y="134.394" fill="#f00"/><path d="M224.688 129.168l-20.438-1.19M213.438 146.27l11.25-17.102" stroke-width="1.2" stroke="#000" stroke-miterlimit="10" fill="none"/><path d="M213.438 146.27m-.86-2.875l-.933.468m.074-3.34l-1.865.934m1.004-3.81l-2.798 1.404m1.934-4.277l-3.726 1.872m2.867-4.747l-4.657 2.34m3.797-5.21l-5.59 2.804m4.79-5.477l-6.457 3.243" stroke="#000" stroke-miterlimit="10" fill="none"/><path d="M213.438 146.27l-1.192 20.437" stroke-width="1.2" stroke="#000" stroke-miterlimit="10" fill="none"/><path d="M212.246 166.707m2.184 2.06l.57-.872m1.61 2.933l1.148-1.742m1.035 3.8l1.72-2.613m.46 4.672l2.293-3.484m-.11 5.544l2.864-4.356m-.684 6.415l3.437-5.227m-1.406 7.14l3.97-6.035" stroke="#000" stroke-miterlimit="10" fill="none"/><path d="M212.246 166.707l-9.148 4.594" stroke-width="1.2" stroke="#000" stroke-miterlimit="10" fill="none"/><path d="M203.098 171.3l-9.145 4.595" stroke-width="1.2" stroke="#00f" stroke-miterlimit="10" fill="none"/><path d="M229.352 177.957l-1.192 20.438M234.04 180.28l-.954 16.353M247.645 168.77l-18.293 9.187M228.16 198.395l17.106 11.253M245.266 209.648l18.293-9.187M244.934 204.422l14.632-7.348M263.56 200.46l1.19-20.44M264.75 180.02l-17.105-11.25M260.39 182.922l-13.68-9" stroke-width="1.2" stroke="#000" stroke-miterlimit="10" fill="none"/><path d="M193.953 175.895l-8.555-5.625" stroke-width="1.2" stroke="#00f" stroke-miterlimit="10" fill="none"/><path d="M185.398 170.27l-8.55-5.625" stroke-width="1.2" stroke="#000" stroke-miterlimit="10" fill="none"/><path d="M186.953 170.395h14v11h-14zm0 0" fill="#fff"/><g fill="#00f"><use xlink:href="#a" x="186.953" y="179.058"/><use xlink:href="#b" x="193.931" y="179.058"/></g><path d="M179.25 164.785l.598-10.22" stroke-width="1.2" stroke="#000" stroke-miterlimit="10" fill="none"/><path d="M179.848 154.566l.593-10.218" stroke-width="1.2" stroke="#f00" stroke-miterlimit="10" fill="none"/><path d="M174.44 164.504l.6-10.22" stroke-width="1.2" stroke="#000" stroke-miterlimit="10" fill="none"/><path d="M175.04 154.285l.593-10.22" stroke-width="1.2" stroke="#f00" stroke-miterlimit="10" fill="none"/><path d="M176.848 164.645l-18.297 9.187" stroke-width="1.2" stroke="#000" stroke-miterlimit="10" fill="none"/><path d="M174.04 138.707h8v11h-8zm0 0" fill="#fff"/><use xlink:href="#c" x="174.039" y="147.37" fill="#f00"/><path d="M158.55 173.832l-8.55-5.625" stroke-width="1.2" stroke="#000" stroke-miterlimit="10" fill="none"/><path d="M150 168.207l-8.55-5.625M141.45 162.582l-9.15 4.594" stroke-width="1.2" stroke="#00f" stroke-miterlimit="10" fill="none"/><path d="M132.3 167.176l-9.148 4.594" stroke-width="1.2" stroke="#000" stroke-miterlimit="10" fill="none"/><path d="M134.45 157.082h14v11h-14zm0 0" fill="#fff"/><g fill="#00f"><use xlink:href="#a" x="134.449" y="165.745"/><use xlink:href="#b" x="141.427" y="165.745"/></g><path d="M120.75 171.63l-.598 10.218" stroke-width="1.2" stroke="#000" stroke-miterlimit="10" fill="none"/><path d="M120.152 181.848l-.593 10.218" stroke-width="1.2" stroke="#f00" stroke-miterlimit="10" fill="none"/><path d="M125.56 171.91l-.6 10.22" stroke-width="1.2" stroke="#000" stroke-miterlimit="10" fill="none"/><path d="M124.96 182.13l-.593 10.218" stroke-width="1.2" stroke="#f00" stroke-miterlimit="10" fill="none"/><path d="M123.152 171.77l-8.55-5.625" stroke-width="1.2" stroke="#000" stroke-miterlimit="10" fill="none"/><path d="M114.602 166.145l-8.555-5.625" stroke-width="1.2" stroke="#f00" stroke-miterlimit="10" fill="none"/><path d="M117.96 186.707h8v11h-8zm0 0" fill="#fff"/><use xlink:href="#c" x="117.961" y="195.37" fill="#f00"/><path d="M106.047 160.52l-9.145 4.593" stroke-width="1.2" stroke="#f00" stroke-miterlimit="10" fill="none"/><path d="M96.902 165.113l-9.148 4.594" stroke-width="1.2" stroke="#000" stroke-miterlimit="10" fill="none"/><path d="M102.047 155.02h8v11h-8zm0 0" fill="#fff"/><use xlink:href="#c" x="102.047" y="163.683" fill="#f00"/><path d="M87.754 169.707l-17.106-11.25M70.648 158.457l1.192-20.437M65.96 156.133l.954-16.352M52.355 167.645l18.293-9.188M71.84 138.02l-17.106-11.25M54.734 126.77l-18.293 9.187M55.066 131.992l-14.632 7.352M36.44 135.957l-1.19 20.438M35.25 156.395l17.105 11.25M39.61 153.496l13.68 9" stroke-width="1.2" stroke="#000" stroke-miterlimit="10" fill="none"/></g></svg>
